images/Icon_Camiseta.svg

<svg width="64" height="64" viewBox="0 0 64 64" fill="none" xmlns="http://www.w3.org/2000/svg">
<path d="M16.875 2.61249C13.0625 4.03749 9.625 5.36249 9.25 5.56249C8.2375 6.07499 7.125 7.24999 6.6 8.37499C6.0125 9.61249 0 27.7125 0 28.25C0 29.375 0.9375 30.7125 1.9375 30.9875C2.2 31.05 4.7875 31.3 7.7 31.5125L13 31.925V46.125C13 58.5375 13.025 60.35 13.1875 60.5875C13.575 61.1375 18.5625 62.5625 22.2875 63.175C25.925 63.7875 27.7625 63.925 32.0625 63.925C36.3625 63.925 38.3875 63.7625 41.875 63.175C45.5 62.5625 50.4375 61.125 50.8125 60.5875C50.975 60.35 51 58.625 51 46.125V31.9375L56.2875 31.525C59.1875 31.3 61.7875 31.0625 62.0625 30.9875C63.0625 30.7125 64 29.3875 64 28.2375C64 28.0125 62.5625 23.5125 60.8125 18.25C58.4625 11.2125 57.5 8.47499 57.15 7.88749C56.5875 6.93749 55.5875 5.98749 54.6375 5.51249C54.25 5.31249 50.8375 3.99999 47.05 2.57499L40.175 -7.62939e-06H31.9875H23.8125L16.875 2.61249ZM38.875 2.24999C38.875 2.61249 38.3375 4.01249 37.95 4.68749C37.125 6.09999 35.2875 7.41249 33.6125 7.81249C31.3 8.34999 28.8125 7.66249 27.125 5.98749C26.3 5.17499 25.8375 4.43749 25.4125 3.28749C24.8875 1.84999 24.1125 1.99999 32 1.99999C38.7375 1.99999 38.875 1.99999 38.875 2.24999ZM23.3 3.24999C23.4125 3.69999 23.7375 4.53749 24.025 5.12499C24.45 5.97499 24.775 6.39999 25.625 7.24999C26.825 8.44999 27.85 9.09999 29.3125 9.58749C30.2 9.88749 30.5 9.92499 32 9.92499C33.5 9.92499 33.8 9.88749 34.6875 9.58749C36.15 9.09999 37.175 8.44999 38.375 7.24999C39.225 6.39999 39.55 5.97499 39.975 5.12499C40.2625 4.53749 40.5875 3.68749 40.7 3.23749L40.9 2.41249L41.8 2.74999C42.3125 2.94999 42.7 3.17499 42.725 3.28749C42.8 3.64999 42.025 5.63749 41.4125 6.64999C38.6125 11.3375 32.6625 13.2625 27.6625 11.1C24.8625 9.87499 22.6 7.43749 21.6 4.56249C21.4 3.97499 21.25 3.39999 21.275 3.28749C21.3 3.17499 21.675 2.94999 22.1875 2.74999C22.675 2.56249 23.075 2.42499 23.075 2.42499C23.0875 2.43749 23.1875 2.79999 23.3 3.24999ZM19.6 4.84999C20.8 8.81249 23.9 11.975 27.8875 13.3C29.5875 13.8625 30.9375 14.05 32.675 13.9625C35.05 13.8375 37.225 13.125 39.175 11.825C41.6375 10.1875 43.525 7.67499 44.3875 4.87499C44.55 4.36249 44.6875 3.91249 44.7 3.89999C44.7625 3.81249 53.575 7.17499 54 7.43749C54.5625 7.78749 55.3 8.61249 55.6 9.21249C55.7375 9.47499 57.2375 13.8625 58.9375 18.975C61.0875 25.425 62 28.35 61.95 28.5625C61.9125 28.725 61.7625 28.925 61.6375 29C61.425 29.1 52.45 29.875 51.375 29.875H51V26.25V22.6125L50.6875 22.3125C50.2875 21.9 49.7125 21.9 49.3125 22.3125L49 22.6125V40.975V59.3375L47.725 59.725C44.625 60.675 41.5 61.3 37.85 61.7125C35.175 62.0125 28.825 62.0125 26.15 61.7125C22.525 61.3 19.6875 60.7375 16.5375 59.8L15 59.3375V40.975V22.6125L14.675 22.2875C14.4125 22.025 14.275 21.9875 13.9 22.05C13 22.1875 13 22.2125 13 26.2625V29.875H12.6625C11.6125 29.875 2.5625 29.1 2.3625 29C2.2375 28.925 2.0875 28.725 2.05 28.5625C2 28.35 2.9125 25.425 5.0625 18.975C6.7625 13.8625 8.2625 9.47499 8.4 9.21249C8.7375 8.53749 9.575 7.64999 10.1875 7.33749C10.6875 7.07499 18.95 3.91249 19.1875 3.88749C19.2625 3.88749 19.45 4.31249 19.6 4.84999Z" fill="#C92071"/>
</svg>

<?xml version="1.0" encoding="utf-8"?>
<!-- Generator: Adobe Illustrator 27.5.0, SVG Export Plug-In . SVG Version: 6.00 Build 0)  -->
<svg version="1.1" id="Layer_1" xmlns="http://www.w3.org/2000/svg" xmlns:xlink="http://www.w3.org/1999/xlink" x="0px" y="0px"
	 width="64px" height="64px" viewBox="0 0 64 64" style="enable-background:new 0 0 64 64;" xml:space="preserve">
<style type="text/css">
	.st0{fill:#8F8F8F;}
</style>
<path class="st0" d="M16.9,2.6C13.1,4,9.6,5.4,9.2,5.6c-1,0.5-2.1,1.7-2.7,2.8C6,9.6,0,27.7,0,28.3c0,1.1,0.9,2.5,1.9,2.7
	c0.3,0.1,2.8,0.3,5.8,0.5l5.3,0.4v14.2c0,12.4,0,14.2,0.2,14.5c0.4,0.5,5.4,2,9.1,2.6c3.6,0.6,5.5,0.8,9.8,0.8s6.3-0.2,9.8-0.8
	c3.6-0.6,8.6-2,8.9-2.6c0.2-0.2,0.2-2,0.2-14.5V31.9l5.3-0.4c2.9-0.2,5.5-0.5,5.8-0.5c1-0.3,1.9-1.6,1.9-2.8c0-0.2-1.4-4.7-3.2-10
	c-2.3-7-3.3-9.8-3.7-10.4c-0.6-0.9-1.6-1.9-2.5-2.4C54.2,5.3,50.8,4,47,2.6L40.2,0H32h-8.2L16.9,2.6z M38.9,2.3
	c0,0.4-0.5,1.8-0.9,2.4c-0.8,1.4-2.7,2.7-4.3,3.1c-2.3,0.5-4.8-0.2-6.5-1.8c-0.8-0.8-1.3-1.6-1.7-2.7C24.9,1.9,24.1,2,32,2
	C38.7,2,38.9,2,38.9,2.3z M23.3,3.3c0.1,0.5,0.4,1.3,0.7,1.9c0.4,0.8,0.8,1.3,1.6,2.1c1.2,1.2,2.2,1.8,3.7,2.3
	c0.9,0.3,1.2,0.3,2.7,0.3s1.8,0,2.7-0.3c1.5-0.5,2.5-1.1,3.7-2.3C39.2,6.4,39.5,6,40,5.1c0.3-0.6,0.6-1.4,0.7-1.9l0.2-0.8l0.9,0.3
	c0.5,0.2,0.9,0.4,0.9,0.5c0.1,0.4-0.7,2.3-1.3,3.4c-2.8,4.7-8.8,6.6-13.7,4.5c-2.8-1.2-5.1-3.7-6.1-6.5c-0.2-0.6-0.4-1.2-0.3-1.3
	c0-0.1,0.4-0.3,0.9-0.5c0.5-0.2,0.9-0.3,0.9-0.3C23.1,2.4,23.2,2.8,23.3,3.3z M19.6,4.9c1.2,4,4.3,7.1,8.3,8.5
	c1.7,0.6,3,0.8,4.8,0.7c2.4-0.1,4.5-0.8,6.5-2.1c2.5-1.6,4.4-4.2,5.2-7c0.2-0.5,0.3-1,0.3-1c0.1-0.1,8.9,3.3,9.3,3.5
	c0.6,0.3,1.3,1.2,1.6,1.8c0.1,0.3,1.6,4.7,3.3,9.8c2.2,6.4,3.1,9.4,3,9.6c0,0.2-0.2,0.4-0.3,0.4c-0.2,0.1-9.2,0.9-10.3,0.9H51v-3.6
	v-3.6l-0.3-0.3c-0.4-0.4-1-0.4-1.4,0L49,22.6V41v18.4l-1.3,0.4c-3.1,1-6.2,1.6-9.9,2c-2.7,0.3-9,0.3-11.7,0c-3.6-0.4-6.5-1-9.6-1.9
	L15,59.3V41V22.6l-0.3-0.3c-0.3-0.3-0.4-0.3-0.8-0.2C13,22.2,13,22.2,13,26.3v3.6h-0.3c-1.1,0-10.1-0.8-10.3-0.9
	c-0.1-0.1-0.3-0.3-0.3-0.4c0-0.2,0.9-3.1,3-9.6c1.7-5.1,3.2-9.5,3.3-9.8c0.3-0.7,1.2-1.6,1.8-1.9c0.5-0.3,8.8-3.4,9-3.4
	C19.3,3.9,19.5,4.3,19.6,4.9z"/>
</svg>
